packages/ffe-icons/icons/open/400/sm/pause_presentation.svg

<svg xmlns="http://www.w3.org/2000/svg" height="20" viewBox="0 -960 960 960" width="20"><path d="M407.789-336Q423-336 433.5-346.338 444-356.677 444-371.96v-215.757Q444-603 433.711-613.5q-10.29-10.5-25.5-10.5Q393-624 382.5-613.662 372-603.323 372-588.04v215.757Q372-357 382.289-346.5q10.29 10.5 25.5 10.5Zm144 0Q567-336 577.5-346.338 588-356.677 588-371.96v-215.757Q588-603 577.711-613.5q-10.29-10.5-25.5-10.5Q537-624 526.5-613.662 516-603.323 516-588.04v215.757Q516-357 526.289-346.5q10.29 10.5 25.5 10.5ZM168-192q-29.7 0-50.85-21.162Q96-234.324 96-264.04v-432.243Q96-726 117.15-747T168-768h624q29.7 0 50.85 21.162Q864-725.676 864-695.96v432.243Q864-234 842.85-213T792-192H168Zm0-72h624v-432H168v432Zm0 0v-432 432Z"/></svg>

<svg xmlns="http://www.w3.org/2000/svg" height="20" viewBox="0 -960 960 960" width="20"><path d="M407.79-336q15.21 0 25.71-10.34t10.5-25.62v-215.76q0-15.28-10.29-25.78-10.29-10.5-25.5-10.5t-25.71 10.34Q372-603.32 372-588.04v215.76q0 15.28 10.29 25.78 10.29 10.5 25.5 10.5Zm144 0q15.21 0 25.71-10.34t10.5-25.62v-215.76q0-15.28-10.29-25.78-10.29-10.5-25.5-10.5t-25.71 10.34Q516-603.32 516-588.04v215.76q0 15.28 10.29 25.78 10.29 10.5 25.5 10.5ZM168-192q-29.7 0-50.85-21.16Q96-234.32 96-264.04v-432.24Q96-726 117.15-747T168-768h624q29.7 0 50.85 21.16Q864-725.68 864-695.96v432.24Q864-234 842.85-213T792-192H168Zm0-72h624v-432H168v432Zm0 0v-432 432Z"/></svg>
